X:1
T:"Tim The Thatcher"    (jig)     0739
C:after Mrs. Mary O'Neill
L:1/8
M:4/4
I:linebreak $
K:C
V:1 treble 
V:1
 BEA |SOSOOO .!fermata!PMTuCME | A>B A ^c2 A z2 | d2 B ^G2 B z2 | A>B A ^c2 A z2 | B2 E ^GAB z2 | %6
 A>B A ^c2 A z2 |$ dBd e2 (e/^f/) z2 | =gag g^fe z2 | dB^G A2 :: d | e>^f e d2 B z2 | %12
 e2 A A>Bd z2 | e>^f e d2 B z2 |$ dB^G GBd z2 | e>^f e d2 B z2 | e2 ^f ^g2 a z2 | ba=g g^fe z2 | %18
 dB^G A2 :| %19
